X:1
T:Ludborough, LM
T:Ludborough, LM
T:Timothy Richard Mathews, 1874
T:Public Domain Courtesy of the Cyber Hymnal™
C:Timothy Richard Mathews, 1874
Z:Public Domain
Z:Courtesy of the Cyber Hymnal™
%%score ( 1 2 ) ( 3 4 )
L:1/8
Q:1/4=110
M:none
K:Eb
V:1 treble 
V:2 treble 
V:3 bass 
V:4 bass 
V:1
 E2 | [EG]2 [EA]2 [EB]2 [Ec]2 | [EB]2 [DA]2 [EG]2 [EG]2 | [DG]2 [DF]2 E2 [Ee]2 | %4
 d2 z [DB]2 [DB]2 x | [DF]2 [EG]2 [EA]2 (GF) | G2 z [EB]2 [Ec]2 x | [CE]2 [DF]2 [EG]2 (BA) | %8
 [EG]2 [DF]2 E2 x |] %9
V:2
 E2 | x8 | x8 | x4 E2 x2 | F3 (c2 E) x2 | x6 D2 | E3 (A2 D) x2 | x6 E2 | x4 E2 x |] %9
V:3
 [E,G,]2 | [E,B,]2 [C,C]2 [G,,B,]2 (A,G,) | [B,,F,]2 [B,,B,]2 [E,B,]2 [E,B,]2 | %3
 [B,,B,]2 [B,,A,]2 [C,G,]2 [C,C]2 | [F,B,]2 [F,=A,]2 [B,,B,]2 B,2 | %5
 [A,B,]2 [G,B,]2 [F,C]2 [B,,B,]2 | [E,B,]2 [C,C]2 [G,,B,]2 [A,,A,]2 | %7
 [C,G,]2 [B,,B,]2 [E,B,]2 ([G,,B,][A,,C]) | B,3 z A, [E,G,]2 |] %9
V:4
 x2 | x6 A,,2 | x8 | x8 | x6 B,2 | x8 | x8 | x8 | B,,2 B,,2 x3 |] %9

